public/Images/home.svg

<svg width="50" height="50" viewBox="0 0 50 50" fill="none" xmlns="http://www.w3.org/2000/svg">
<g clip-path="url(#clip0)">
<path d="M49.972 23.0961C49.8598 22.2381 49.4218 21.4752 48.7358 20.9477L39.5402 13.8667V6.75674C39.5402 4.97099 38.0872 3.51807 36.3023 3.51807C34.5181 3.51807 33.0644 4.97099 33.0644 6.75674V8.88L26.9748 4.18998C26.4112 3.75747 25.7095 3.51807 24.9991 3.51807C24.288 3.51807 23.5854 3.75669 23.0219 4.19076L1.26091 20.9477C-0.153551 22.038 -0.418076 24.0741 0.671423 25.4886C1.28996 26.2908 2.22482 26.7508 3.23897 26.7508C3.76017 26.7508 4.26096 26.6307 4.71466 26.3968V43.2424C4.71466 45.0281 6.16758 46.4818 7.95333 46.4818H22.5014V31.1873H27.4866V46.4795H41.8283C43.6132 46.4795 45.0661 45.0274 45.0661 43.24V26.2735C45.5756 26.5867 46.1549 26.7508 46.7593 26.7508C47.7711 26.7508 48.7075 26.2908 49.326 25.4902C49.8551 24.8049 50.0851 23.9548 49.972 23.0961ZM46.9547 23.6612C46.8919 23.7437 46.8064 23.757 46.7608 23.757C46.7067 23.757 46.6572 23.7405 46.6133 23.706L42.0732 20.2106V43.2424C42.0732 43.3782 41.9633 43.4873 41.8291 43.4873H30.4811L30.4819 28.1935H19.5077V43.4873H7.95333C7.8191 43.4873 7.70999 43.3766 7.70999 43.2424V20.377L3.38732 23.7052C3.34336 23.7389 3.29391 23.7562 3.23975 23.7562C3.19344 23.7562 3.10867 23.7429 3.04509 23.6612C2.99407 23.5953 2.99014 23.527 2.99642 23.4815C3.00191 23.436 3.02311 23.3708 3.08904 23.3206L24.8523 6.56442C24.9607 6.48201 25.0399 6.48122 25.1498 6.56442L36.0597 14.9657V6.75674C36.0597 6.62173 36.1696 6.51262 36.3038 6.51262C36.4381 6.51262 36.5487 6.62173 36.5487 6.75674V15.3401L46.9139 23.3198C46.9798 23.37 46.9987 23.4352 47.005 23.4807C47.0112 23.5286 47.0065 23.5969 46.9547 23.6612Z" fill="#4CAEE1"/>
</g>
<defs>
<clipPath id="clip0">
<rect width="50" height="50" fill="white"/>
</clipPath>
</defs>
</svg>

<svg xmlns="http://www.w3.org/2000/svg" width="50" height="50" fill="none"><g clip-path="url(#A)"><path d="M49.972 23.096c-.112-.858-.55-1.62-1.236-2.148l-9.196-7.08v-7.1c0-1.786-1.453-3.24-3.238-3.24s-3.238 1.453-3.238 3.24V8.88l-6.1-4.7C26.41 3.757 25.7 3.518 25 3.518s-1.414.24-1.977.673L1.26 20.948c-1.414 1.1-1.68 3.126-.59 4.54a3.22 3.22 0 0 0 2.568 1.262 3.2 3.2 0 0 0 1.476-.354v16.846c0 1.786 1.453 3.24 3.24 3.24H22.5V31.187h4.985V46.48h14.342c1.785 0 3.238-1.452 3.238-3.24V26.274c.5.313 1.09.477 1.693.477 1.012 0 1.948-.46 2.567-1.26.53-.685.76-1.535.646-2.394zm-3.017.565a.24.24 0 0 1-.194.096c-.054 0-.104-.017-.148-.05l-4.54-3.495v23.032c0 .136-.1.245-.244.245H30.48l.001-15.294H19.508v15.294H7.953c-.134 0-.243-.11-.243-.245V20.377l-4.323 3.328c-.044.034-.093.05-.148.05-.046 0-.13-.013-.195-.095-.05-.066-.055-.134-.05-.18s.027-.11.093-.16L24.852 6.564c.108-.082.188-.083.297 0l10.9 8.4v-8.21c0-.135.1-.244.244-.244s.245.11.245.244v8.583l10.365 7.98c.066.05.085.115.09.16s.002.116-.05.18z" fill="#4caee1"/></g><defs><clipPath id="A"><path fill="#fff" d="M0 0h50v50H0z"/></clipPath></defs></svg>
